public/images/poses-lg/Handstand.svg

<svg width="800" height="800" fill="none" xmlns="http://www.w3.org/2000/svg"><path d="M389.497 572.069c2.008 8.428 11.006 16.016 11.006 16.016l-7.729 20.845-21.563-17.189 18.286-19.672Z" fill="#fff" stroke="#000" stroke-width="5" stroke-miterlimit="10"/><path d="M389.497 572.069c2.008 8.428 11.006 16.016 11.006 16.016l-7.729 20.845-21.563-17.189 18.286-19.672ZM369.919 450.454l-55.718-9.519M369.919 450.454l-55.718-9.519" stroke="#000" stroke-width="5" stroke-miterlimit="10"/><path d="m340.994 445.514 28.925 4.938s2.485 27.236 10.774 46.04c8.287 18.807 13.786 62.225 14.583 68.137 0 0-8.028-19.812-25.015-18.943-19.376.99-25.771 28.102-22.204 43.383 0 0-10.055-10.225-18.413-13.879-8.362-3.656-16.315-17.41-15.433-26.66.885-9.25 7.029-35.617 5.649-46.664-1.376-11.047-5.983-59.431-5.663-60.929l26.797 4.577Z" fill="#fff" stroke="#000" stroke-width="5" stroke-miterlimit="10"/><path d="m340.994 445.514 28.925 4.938s2.485 27.236 10.774 46.04c8.287 18.807 13.786 62.225 14.583 68.137 0 0-8.028-19.812-25.015-18.943-19.376.99-25.771 28.102-22.204 43.383 0 0-10.055-10.225-18.413-13.879-8.362-3.656-16.315-17.41-15.433-26.66.885-9.25 7.029-35.617 5.649-46.664-1.376-11.047-5.983-59.431-5.663-60.929l26.797 4.577Z" stroke="#000" stroke-width="5" stroke-miterlimit="10"/><path d="M342.059 445.696c8.744 1.495 27.859 4.758 27.859 4.758s-1.038-13.446 1.819-17.974c2.854-4.524 15.313-22.867 16.767-38.235 1.452-15.37.883-27.971-7.875-47.892-8.758-19.925-11.479-52.304-6.213-72.3 5.262-19.999 14.208-45.194 14.266-70.563.053-25.366-.403-60.45.402-70.739.801-10.291 2.453-26.277 4.596-29.741 2.145-3.463 6.95.068 10.03-3.305 3.081-3.375.615-10.264-4.354-21.299-4.974-11.037-15.001-37.058-17.555-43.87-2.551-6.809-9.861-7.518-9.261-1.119.604 6.395 1.357 19.417 1.024 33.148-.333 13.727-1.306 41.539-3.581 54.266-2.274 12.724-10.648 47.381-16.063 64.734-5.409 17.347-26.956 76.45-29.484 89.979-2.534 13.53-13.629 64.234-15.194 99.738-1.563 35.5 4.959 65.655 4.959 65.655l27.858 4.759Z" fill="#fff" stroke="#000" stroke-width="5" stroke-miterlimit="10"/><path d="M342.059 445.696c8.744 1.495 27.859 4.758 27.859 4.758s-1.038-13.446 1.819-17.974c2.854-4.524 15.313-22.867 16.767-38.235 1.452-15.37.883-27.971-7.875-47.892-8.758-19.925-11.479-52.304-6.213-72.3 5.262-19.999 14.208-45.194 14.266-70.563.053-25.366-.403-60.45.402-70.739.801-10.291 2.453-26.277 4.596-29.741 2.145-3.463 6.95.068 10.03-3.305 3.081-3.375.615-10.264-4.354-21.299-4.974-11.037-15.001-37.058-17.555-43.87-2.551-6.809-9.861-7.518-9.261-1.119.604 6.395 1.357 19.417 1.024 33.148-.333 13.727-1.306 41.539-3.581 54.266-2.274 12.724-10.648 47.381-16.063 64.734-5.409 17.347-26.956 76.45-29.484 89.979-2.534 13.53-13.629 64.234-15.194 99.738-1.563 35.5 4.959 65.655 4.959 65.655l27.858 4.759ZM389.886 122.46l-19.199-7.292M389.886 122.46l-19.199-7.292" stroke="#000" stroke-width="5" stroke-miterlimit="10"/><path d="M397.654 582.061c4.996-5.549 12.046-4.641 19.344-8.4 11.592-5.977 28.614 4.875 32.442 18.937 5.056 18.565-59.732 41.229-64.39 31.057-2.758-6.027-1.3-19.184 6.302-30.936 2.445-3.779 6.302-10.658 6.302-10.658Z" fill="#fff" stroke="#000" stroke-width="5" stroke-miterlimit="10"/><path d="M397.654 582.061c4.996-5.549 12.046-4.641 19.344-8.4 11.592-5.977 28.614 4.875 32.442 18.937 5.056 18.565-59.732 41.229-64.39 31.057-2.758-6.027-1.3-19.184 6.302-30.936 2.445-3.779 6.302-10.658 6.302-10.658Z" stroke="#000" stroke-width="5" stroke-miterlimit="10"/><path d="M444.398 602.76c-11.499 3.58-34.972 2.082-36.012-13.504-1.171-17.525-8.612-7.732-11.229-5.453-2.612 2.272-5.731 12.022-7.131 10.703-1.401-1.318-.588-26.302 15.15-33.99 15.743-7.685 25.657-6.533 33.583.315 7.925 6.847 14.722 24.295 12.302 34.568-2.415 10.279-6.663 7.361-6.663 7.361Z" fill="#000" stroke="#000" stroke-width="5" stroke-miterlimit="10"/><path d="M436.248 566.36c-5.771-5.986-14.78-23.879 7.259-28.004 18.107-3.391 13.504-10.023 26.107-18.922 10.129-7.152 24.995 2.565 21.979 27.776-2.745 22.947-15.881 17.361-30.771 14.515-14.888-2.844-24.574 4.635-24.574 4.635Z" fill="#000" stroke="#000" stroke-width="5" stroke-miterlimit="10"/><path d="M358.581 549.151c8.838-6.641 28.653-4.723 36.242 14.416 0 0 1.315 7.018-2.594 15.43-3.908 8.41-6.556 8.449-6.275 15.474.282 7.022.452 49.533-.68 62.957-1.133 13.42-3.268 33.938-2.862 51.071.404 17.134-2.006 67.222-.584 70.812 1.423 3.584 10.081 3.25 13.208 3.697 3.127.442 21.26 4.145 26.011 7.58 4.752 3.438-1.78 3.567-6.317 3.426-4.539-.146-36.426-.476-42.422-.662-6.002-.189-5.546-8.152-5.957-14.35-.41-6.199-4.309-38.836-5.286-46.843-.977-8.01-6.384-57.35-7.227-82.114-.844-24.763-2.385-47.242-3.906-53.601-1.521-6.354-3.214-9.018-2.49-22.033.722-13.018 11.139-25.26 11.139-25.26Z" fill="#fff" stroke="#000" stroke-width="5" stroke-miterlimit="10"/><path d="M358.581 549.151c8.838-6.641 28.653-4.723 36.242 14.416 0 0 1.315 7.018-2.594 15.43-3.908 8.41-6.556 8.449-6.275 15.474.282 7.022.452 49.533-.68 62.957-1.133 13.42-3.268 33.938-2.862 51.071.404 17.134-2.006 67.222-.584 70.812 1.423 3.584 10.081 3.25 13.208 3.697 3.127.442 21.26 4.145 26.011 7.58 4.752 3.438-1.78 3.567-6.317 3.426-4.539-.146-36.426-.476-42.422-.662-6.002-.189-5.546-8.152-5.957-14.35-.41-6.199-4.309-38.836-5.286-46.843-.977-8.01-6.384-57.35-7.227-82.114-.844-24.763-2.385-47.242-3.906-53.601-1.521-6.354-3.214-9.018-2.49-22.033.722-13.018 11.139-25.26 11.139-25.26Z" stroke="#000" stroke-width="5" stroke-miterlimit="10"/></svg>

<svg width="800" height="800" viewBox="0 0 800 800" fill="none" xmlns="http://www.w3.org/2000/svg">
<path d="M389.497 572.069C391.505 580.497 400.503 588.085 400.503 588.085L392.774 608.93L371.211 591.741L389.497 572.069Z" fill="white" stroke="black" stroke-width="5" stroke-miterlimit="10"/>
<path d="M389.497 572.069C391.505 580.497 400.503 588.085 400.503 588.085L392.774 608.93L371.211 591.741L389.497 572.069Z" stroke="black" stroke-width="5" stroke-miterlimit="10"/>
<path d="M369.919 450.454L314.201 440.935" stroke="black" stroke-width="5" stroke-miterlimit="10"/>
<path d="M369.919 450.454L314.201 440.935" stroke="black" stroke-width="5" stroke-miterlimit="10"/>
<path d="M340.994 445.514C351.363 447.285 369.919 450.452 369.919 450.452C369.919 450.452 372.404 477.688 380.693 496.492C388.98 515.299 394.479 558.717 395.276 564.629C395.276 564.629 387.248 544.817 370.261 545.686C350.885 546.676 344.49 573.788 348.057 589.069C348.057 589.069 338.002 578.844 329.644 575.19C321.282 571.534 313.329 557.78 314.211 548.53C315.096 539.28 321.24 512.913 319.86 501.866C318.484 490.819 313.877 442.435 314.197 440.937L340.994 445.514Z" fill="white" stroke="black" stroke-width="5" stroke-miterlimit="10"/>
<path d="M340.994 445.514C351.363 447.285 369.919 450.452 369.919 450.452C369.919 450.452 372.404 477.688 380.693 496.492C388.98 515.299 394.479 558.717 395.276 564.629C395.276 564.629 387.248 544.817 370.261 545.686C350.885 546.676 344.49 573.788 348.057 589.069C348.057 589.069 338.002 578.844 329.644 575.19C321.282 571.534 313.329 557.78 314.211 548.53C315.096 539.28 321.24 512.913 319.86 501.866C318.484 490.819 313.877 442.435 314.197 440.937L340.994 445.514Z" stroke="black" stroke-width="5" stroke-miterlimit="10"/>
<path d="M342.059 445.696C350.803 447.191 369.918 450.454 369.918 450.454C369.918 450.454 368.88 437.008 371.737 432.48C374.591 427.956 387.05 409.613 388.504 394.245C389.956 378.875 389.387 366.274 380.629 346.353C371.871 326.428 369.15 294.049 374.416 274.053C379.678 254.054 388.624 228.859 388.682 203.49C388.735 178.124 388.279 143.04 389.084 132.751C389.885 122.46 391.537 106.474 393.68 103.01C395.825 99.5472 400.63 103.078 403.71 99.7052C406.791 96.3302 404.325 89.4412 399.356 78.4062C394.382 67.3692 384.355 41.3482 381.801 34.5362C379.25 27.7272 371.94 27.0182 372.54 33.4172C373.144 39.8122 373.897 52.8342 373.564 66.5652C373.231 80.2922 372.258 108.104 369.983 120.831C367.709 133.555 359.335 168.212 353.92 185.565C348.511 202.912 326.964 262.015 324.436 275.544C321.902 289.074 310.807 339.778 309.242 375.282C307.679 410.782 314.201 440.937 314.201 440.937L342.059 445.696Z" fill="white" stroke="black" stroke-width="5" stroke-miterlimit="10"/>
<path d="M342.059 445.696C350.803 447.191 369.918 450.454 369.918 450.454C369.918 450.454 368.88 437.008 371.737 432.48C374.591 427.956 387.05 409.613 388.504 394.245C389.956 378.875 389.387 366.274 380.629 346.353C371.871 326.428 369.15 294.049 374.416 274.053C379.678 254.054 388.624 228.859 388.682 203.49C388.735 178.124 388.279 143.04 389.084 132.751C389.885 122.46 391.537 106.474 393.68 103.01C395.825 99.5472 400.63 103.078 403.71 99.7052C406.791 96.3302 404.325 89.4412 399.356 78.4062C394.382 67.3692 384.355 41.3482 381.801 34.5362C379.25 27.7272 371.94 27.0182 372.54 33.4172C373.144 39.8122 373.897 52.8342 373.564 66.5652C373.231 80.2922 372.258 108.104 369.983 120.831C367.709 133.555 359.335 168.212 353.92 185.565C348.511 202.912 326.964 262.015 324.436 275.544C321.902 289.074 310.807 339.778 309.242 375.282C307.679 410.782 314.201 440.937 314.201 440.937L342.059 445.696Z" stroke="black" stroke-width="5" stroke-miterlimit="10"/>
<path d="M389.886 122.46L370.687 115.168" stroke="black" stroke-width="5" stroke-miterlimit="10"/>
<path d="M389.886 122.46L370.687 115.168" stroke="black" stroke-width="5" stroke-miterlimit="10"/>
<path d="M397.654 582.061C402.65 576.512 409.7 577.42 416.998 573.661C428.59 567.684 445.612 578.536 449.44 592.598C454.496 611.163 389.708 633.827 385.05 623.655C382.292 617.628 383.75 604.471 391.352 592.719C393.797 588.94 397.654 582.061 397.654 582.061Z" fill="white" stroke="black" stroke-width="5" stroke-miterlimit="10"/>
<path d="M397.654 582.061C402.65 576.512 409.7 577.42 416.998 573.661C428.59 567.684 445.612 578.536 449.44 592.598C454.496 611.163 389.708 633.827 385.05 623.655C382.292 617.628 383.75 604.471 391.352 592.719C393.797 588.94 397.654 582.061 397.654 582.061Z" stroke="black" stroke-width="5" stroke-miterlimit="10"/>
<path d="M444.398 602.76C432.899 606.34 409.426 604.842 408.386 589.256C407.215 571.731 399.774 581.524 397.157 583.803C394.545 586.075 391.426 595.825 390.026 594.506C388.625 593.188 389.438 568.204 405.176 560.516C420.919 552.831 430.833 553.983 438.759 560.831C446.684 567.678 453.481 585.126 451.061 595.399C448.646 605.678 444.398 602.76 444.398 602.76Z" fill="black" stroke="black" stroke-width="5" stroke-miterlimit="10"/>
<path d="M436.248 566.36C430.477 560.374 421.468 542.481 443.507 538.356C461.614 534.965 457.011 528.333 469.614 519.434C479.743 512.282 494.609 521.999 491.593 547.21C488.848 570.157 475.712 564.571 460.822 561.725C445.934 558.881 436.248 566.36 436.248 566.36Z" fill="black" stroke="black" stroke-width="5" stroke-miterlimit="10"/>
<path d="M358.581 549.151C367.419 542.51 387.234 544.428 394.823 563.567C394.823 563.567 396.138 570.585 392.229 578.997C388.321 587.407 385.673 587.446 385.954 594.471C386.236 601.493 386.406 644.004 385.274 657.428C384.141 670.848 382.006 691.366 382.412 708.499C382.816 725.633 380.406 775.721 381.828 779.311C383.251 782.895 391.909 782.561 395.036 783.008C398.163 783.45 416.296 787.153 421.047 790.588C425.799 794.026 419.267 794.155 414.73 794.014C410.191 793.868 378.304 793.538 372.308 793.352C366.306 793.163 366.762 785.2 366.351 779.002C365.941 772.803 362.042 740.166 361.065 732.159C360.088 724.149 354.681 674.809 353.838 650.045C352.994 625.282 351.453 602.803 349.932 596.444C348.411 590.09 346.718 587.426 347.442 574.411C348.164 561.393 358.581 549.151 358.581 549.151Z" fill="white" stroke="black" stroke-width="5" stroke-miterlimit="10"/>
<path d="M358.581 549.151C367.419 542.51 387.234 544.428 394.823 563.567C394.823 563.567 396.138 570.585 392.229 578.997C388.321 587.407 385.673 587.446 385.954 594.471C386.236 601.493 386.406 644.004 385.274 657.428C384.141 670.848 382.006 691.366 382.412 708.499C382.816 725.633 380.406 775.721 381.828 779.311C383.251 782.895 391.909 782.561 395.036 783.008C398.163 783.45 416.296 787.153 421.047 790.588C425.799 794.026 419.267 794.155 414.73 794.014C410.191 793.868 378.304 793.538 372.308 793.352C366.306 793.163 366.762 785.2 366.351 779.002C365.941 772.803 362.042 740.166 361.065 732.159C360.088 724.149 354.681 674.809 353.838 650.045C352.994 625.282 351.453 602.803 349.932 596.444C348.411 590.09 346.718 587.426 347.442 574.411C348.164 561.393 358.581 549.151 358.581 549.151Z" stroke="black" stroke-width="5" stroke-miterlimit="10"/>
</svg>
